X: 30
T:The Templehouse
M:C|
L:1/8
R:Reel
K:G
EFGA  BGFD | D2 ((3FED) ADFD | EDEF GABc | dBAc BE E2 | 
EFGA BGFE | D2 ((3 FED) ADFD | EFGA BAB^c | dBAc BE E2 :| 
|: g2 ef g2 eg | fd {e}((3d^cd) fd {e}((3dcd) | g2 ef gfed | BdAc BE E2 |
g2 ef gfeg |fd {e}((3d^cd) fdcd | efge af ((3gfe) | dBAc BE E2 :|
